/* XPM */
static const char *sshui_xpm[] = {
"32 32 3 1",
"  c None",
"# c #000000",
". c #FFFFFF",
"                                ",
"                                ",
"                                ",
"                                ",
"                                ",
"                                ",
"                                ",
"                                ",
"    ########################    ",
"   ##########################   ",
"  ##........................##  ",
"  ##........................##  ",
"  ##.#....#####.#####.#...#.##  ",
"  ##..#...#.....#.....#...#.##  ",
"  ##...#..#.....#.....#...#.##  ",
"  ##....#.#####.#####.#####.##  ",
"  ##...#......#.....#.#...#.##  ",
"  ##..#.......#.....#.#...#.##  ",
"  ##.#....#####.#####.#...#.##  ",
"  ##........................##  ",
"  ##........................##  ",
"   ##########################   ",
"    ########################    ",
"                                ",
"                                ",
"                                ",
"                                ",
"                                ",
"                                ",
"                                ",
"                                ",
"                                "
};
